documentation/public/assets/images/cta-buttons.svg

<svg width="672" height="106" viewBox="0 0 672 106" fill="none" xmlns="http://www.w3.org/2000/svg">
<rect width="672" height="106" fill="#F6F6F6"/>
<rect x="194.5" y="32" width="104" height="42" rx="4" fill="#0F67F5"/>
<path d="M219.734 59V47.5469H224.055C224.815 47.5469 225.396 47.5833 225.797 47.6562C226.359 47.75 226.831 47.9297 227.211 48.1953C227.591 48.4557 227.896 48.8229 228.125 49.2969C228.359 49.7708 228.477 50.2917 228.477 50.8594C228.477 51.8333 228.167 52.6589 227.547 53.3359C226.927 54.0078 225.807 54.3438 224.188 54.3438H221.25V59H219.734ZM221.25 52.9922H224.211C225.19 52.9922 225.885 52.8099 226.297 52.4453C226.708 52.0807 226.914 51.5677 226.914 50.9062C226.914 50.4271 226.792 50.0182 226.547 49.6797C226.307 49.3359 225.99 49.1094 225.594 49C225.339 48.9323 224.867 48.8984 224.18 48.8984H221.25V52.9922ZM230.211 59V50.7031H231.477V51.9609C231.799 51.3724 232.096 50.9844 232.367 50.7969C232.643 50.6094 232.945 50.5156 233.273 50.5156C233.747 50.5156 234.229 50.6667 234.719 50.9688L234.234 52.2734C233.891 52.0703 233.547 51.9688 233.203 51.9688C232.896 51.9688 232.62 52.0625 232.375 52.25C232.13 52.4323 231.956 52.6875 231.852 53.0156C231.695 53.5156 231.617 54.0625 231.617 54.6562V59H230.211ZM235.562 49.1641V47.5469H236.969V49.1641H235.562ZM235.562 59V50.7031H236.969V59H235.562ZM239.117 59V50.7031H240.375V51.8672C240.635 51.4609 240.982 51.1354 241.414 50.8906C241.846 50.6406 242.339 50.5156 242.891 50.5156C243.505 50.5156 244.008 50.6432 244.398 50.8984C244.794 51.1536 245.073 51.5104 245.234 51.9688C245.891 51 246.745 50.5156 247.797 50.5156C248.62 50.5156 249.253 50.7448 249.695 51.2031C250.138 51.6562 250.359 52.3568 250.359 53.3047V59H248.961V53.7734C248.961 53.2109 248.914 52.8073 248.82 52.5625C248.732 52.3125 248.568 52.112 248.328 51.9609C248.089 51.8099 247.807 51.7344 247.484 51.7344C246.901 51.7344 246.417 51.9297 246.031 52.3203C245.646 52.7057 245.453 53.3255 245.453 54.1797V59H244.047V53.6094C244.047 52.9844 243.932 52.5156 243.703 52.2031C243.474 51.8906 243.099 51.7344 242.578 51.7344C242.182 51.7344 241.815 51.8385 241.477 52.0469C241.143 52.2552 240.901 52.5599 240.75 52.9609C240.599 53.362 240.523 53.9401 240.523 54.6953V59H239.117ZM257.859 57.9766C257.339 58.4193 256.836 58.7318 256.352 58.9141C255.872 59.0964 255.357 59.1875 254.805 59.1875C253.893 59.1875 253.193 58.9661 252.703 58.5234C252.214 58.0755 251.969 57.5052 251.969 56.8125C251.969 56.4062 252.06 56.0365 252.242 55.7031C252.43 55.3646 252.672 55.0938 252.969 54.8906C253.271 54.6875 253.609 54.5339 253.984 54.4297C254.26 54.3568 254.677 54.2865 255.234 54.2188C256.37 54.0833 257.206 53.9219 257.742 53.7344C257.747 53.5417 257.75 53.4193 257.75 53.3672C257.75 52.7943 257.617 52.3906 257.352 52.1562C256.992 51.8385 256.458 51.6797 255.75 51.6797C255.089 51.6797 254.599 51.7969 254.281 52.0312C253.969 52.2604 253.737 52.6693 253.586 53.2578L252.211 53.0703C252.336 52.4818 252.542 52.0078 252.828 51.6484C253.115 51.2839 253.529 51.0052 254.07 50.8125C254.612 50.6146 255.24 50.5156 255.953 50.5156C256.661 50.5156 257.237 50.599 257.68 50.7656C258.122 50.9323 258.448 51.1432 258.656 51.3984C258.865 51.6484 259.01 51.9661 259.094 52.3516C259.141 52.5911 259.164 53.0234 259.164 53.6484V55.5234C259.164 56.8307 259.193 57.6589 259.25 58.0078C259.312 58.3516 259.432 58.6823 259.609 59H258.141C257.995 58.7083 257.901 58.3672 257.859 57.9766ZM257.742 54.8359C257.232 55.0443 256.466 55.2214 255.445 55.3672C254.867 55.4505 254.458 55.5443 254.219 55.6484C253.979 55.7526 253.794 55.9062 253.664 56.1094C253.534 56.3073 253.469 56.5286 253.469 56.7734C253.469 57.1484 253.609 57.4609 253.891 57.7109C254.177 57.9609 254.594 58.0859 255.141 58.0859C255.682 58.0859 256.164 57.9688 256.586 57.7344C257.008 57.4948 257.318 57.1693 257.516 56.7578C257.667 56.4401 257.742 55.9714 257.742 55.3516V54.8359ZM261.336 59V50.7031H262.602V51.9609C262.924 51.3724 263.221 50.9844 263.492 50.7969C263.768 50.6094 264.07 50.5156 264.398 50.5156C264.872 50.5156 265.354 50.6667 265.844 50.9688L265.359 52.2734C265.016 52.0703 264.672 51.9688 264.328 51.9688C264.021 51.9688 263.745 52.0625 263.5 52.25C263.255 52.4323 263.081 52.6875 262.977 53.0156C262.82 53.5156 262.742 54.0625 262.742 54.6562V59H261.336ZM266.617 62.1953L266.461 60.875C266.768 60.9583 267.036 61 267.266 61C267.578 61 267.828 60.9479 268.016 60.8438C268.203 60.7396 268.357 60.5938 268.477 60.4062C268.565 60.2656 268.708 59.9167 268.906 59.3594C268.932 59.2812 268.974 59.1667 269.031 59.0156L265.883 50.7031H267.398L269.125 55.5078C269.349 56.1172 269.549 56.7578 269.727 57.4297C269.888 56.7839 270.081 56.1536 270.305 55.5391L272.078 50.7031H273.484L270.328 59.1406C269.99 60.0521 269.727 60.6797 269.539 61.0234C269.289 61.487 269.003 61.8255 268.68 62.0391C268.357 62.2578 267.971 62.3672 267.523 62.3672C267.253 62.3672 266.951 62.3099 266.617 62.1953Z" fill="white"/>
<rect x="353.5" y="33" width="123" height="40" rx="3" fill="white"/>
<path d="M377.219 55.3203L378.648 55.1953C378.716 55.7682 378.872 56.2396 379.117 56.6094C379.367 56.974 379.753 57.2708 380.273 57.5C380.794 57.724 381.38 57.8359 382.031 57.8359C382.609 57.8359 383.12 57.75 383.562 57.5781C384.005 57.4062 384.333 57.1719 384.547 56.875C384.766 56.5729 384.875 56.2448 384.875 55.8906C384.875 55.5312 384.771 55.2188 384.562 54.9531C384.354 54.6823 384.01 54.4557 383.531 54.2734C383.224 54.1536 382.544 53.9688 381.492 53.7188C380.44 53.4635 379.703 53.224 379.281 53C378.734 52.7135 378.326 52.3594 378.055 51.9375C377.789 51.5104 377.656 51.0339 377.656 50.5078C377.656 49.9297 377.82 49.3906 378.148 48.8906C378.477 48.3854 378.956 48.0026 379.586 47.7422C380.216 47.4818 380.917 47.3516 381.688 47.3516C382.536 47.3516 383.284 47.4896 383.93 47.7656C384.581 48.0365 385.081 48.4375 385.43 48.9688C385.779 49.5 385.966 50.1016 385.992 50.7734L384.539 50.8828C384.461 50.1589 384.195 49.612 383.742 49.2422C383.294 48.8724 382.63 48.6875 381.75 48.6875C380.833 48.6875 380.164 48.8568 379.742 49.1953C379.326 49.5286 379.117 49.9323 379.117 50.4062C379.117 50.8177 379.266 51.1562 379.562 51.4219C379.854 51.6875 380.615 51.9609 381.844 52.2422C383.078 52.5182 383.924 52.7604 384.383 52.9688C385.049 53.276 385.542 53.6667 385.859 54.1406C386.177 54.6094 386.336 55.151 386.336 55.7656C386.336 56.375 386.161 56.9505 385.812 57.4922C385.464 58.0286 384.961 58.4479 384.305 58.75C383.654 59.0469 382.919 59.1953 382.102 59.1953C381.065 59.1953 380.195 59.0443 379.492 58.7422C378.794 58.4401 378.245 57.987 377.844 57.3828C377.448 56.7734 377.24 56.0859 377.219 55.3203ZM393.906 56.3281L395.359 56.5078C395.13 57.3568 394.706 58.0156 394.086 58.4844C393.466 58.9531 392.674 59.1875 391.711 59.1875C390.497 59.1875 389.534 58.8151 388.82 58.0703C388.112 57.3203 387.758 56.2708 387.758 54.9219C387.758 53.526 388.117 52.4427 388.836 51.6719C389.555 50.901 390.487 50.5156 391.633 50.5156C392.742 50.5156 393.648 50.8932 394.352 51.6484C395.055 52.4036 395.406 53.4661 395.406 54.8359C395.406 54.9193 395.404 55.0443 395.398 55.2109H389.211C389.263 56.1224 389.521 56.8203 389.984 57.3047C390.448 57.7891 391.026 58.0312 391.719 58.0312C392.234 58.0312 392.674 57.8958 393.039 57.625C393.404 57.3542 393.693 56.9219 393.906 56.3281ZM389.289 54.0547H393.922C393.859 53.3568 393.682 52.8333 393.391 52.4844C392.943 51.9427 392.362 51.6719 391.648 51.6719C391.003 51.6719 390.458 51.888 390.016 52.3203C389.578 52.7526 389.336 53.3307 389.289 54.0547ZM402.547 55.9609L403.93 56.1406C403.779 57.0938 403.391 57.8411 402.766 58.3828C402.146 58.9193 401.383 59.1875 400.477 59.1875C399.341 59.1875 398.427 58.8177 397.734 58.0781C397.047 57.3333 396.703 56.2682 396.703 54.8828C396.703 53.987 396.852 53.2031 397.148 52.5312C397.445 51.8594 397.896 51.3568 398.5 51.0234C399.109 50.6849 399.771 50.5156 400.484 50.5156C401.385 50.5156 402.122 50.7448 402.695 51.2031C403.268 51.6562 403.635 52.3021 403.797 53.1406L402.43 53.3516C402.299 52.7943 402.068 52.375 401.734 52.0938C401.406 51.8125 401.008 51.6719 400.539 51.6719C399.831 51.6719 399.255 51.9271 398.812 52.4375C398.37 52.9427 398.148 53.7448 398.148 54.8438C398.148 55.9583 398.362 56.7682 398.789 57.2734C399.216 57.7786 399.773 58.0312 400.461 58.0312C401.013 58.0312 401.474 57.862 401.844 57.5234C402.214 57.1849 402.448 56.6641 402.547 55.9609ZM404.609 54.8516C404.609 53.3151 405.036 52.1771 405.891 51.4375C406.604 50.8229 407.474 50.5156 408.5 50.5156C409.641 50.5156 410.573 50.8906 411.297 51.6406C412.021 52.3854 412.383 53.4167 412.383 54.7344C412.383 55.8021 412.221 56.6432 411.898 57.2578C411.581 57.8672 411.115 58.3411 410.5 58.6797C409.891 59.0182 409.224 59.1875 408.5 59.1875C407.339 59.1875 406.398 58.8151 405.68 58.0703C404.966 57.3255 404.609 56.2526 404.609 54.8516ZM406.055 54.8516C406.055 55.9141 406.286 56.7109 406.75 57.2422C407.214 57.7682 407.797 58.0312 408.5 58.0312C409.198 58.0312 409.779 57.7656 410.242 57.2344C410.706 56.7031 410.938 55.8932 410.938 54.8047C410.938 53.7786 410.703 53.0026 410.234 52.4766C409.771 51.9453 409.193 51.6797 408.5 51.6797C407.797 51.6797 407.214 51.9427 406.75 52.4688C406.286 52.9948 406.055 53.7891 406.055 54.8516ZM414.039 59V50.7031H415.305V51.8828C415.914 50.9714 416.794 50.5156 417.945 50.5156C418.445 50.5156 418.904 50.6068 419.32 50.7891C419.742 50.9661 420.057 51.2005 420.266 51.4922C420.474 51.7839 420.62 52.1302 420.703 52.5312C420.755 52.7917 420.781 53.2474 420.781 53.8984V59H419.375V53.9531C419.375 53.3802 419.32 52.9531 419.211 52.6719C419.102 52.3854 418.906 52.1589 418.625 51.9922C418.349 51.8203 418.023 51.7344 417.648 51.7344C417.049 51.7344 416.531 51.9245 416.094 52.3047C415.661 52.6849 415.445 53.4062 415.445 54.4688V59H414.039ZM428.328 59V57.9531C427.802 58.776 427.029 59.1875 426.008 59.1875C425.346 59.1875 424.737 59.0052 424.18 58.6406C423.628 58.276 423.198 57.7682 422.891 57.1172C422.589 56.4609 422.438 55.7083 422.438 54.8594C422.438 54.0312 422.576 53.2812 422.852 52.6094C423.128 51.9323 423.542 51.4141 424.094 51.0547C424.646 50.6953 425.263 50.5156 425.945 50.5156C426.445 50.5156 426.891 50.6224 427.281 50.8359C427.672 51.0443 427.99 51.3177 428.234 51.6562V47.5469H429.633V59H428.328ZM423.883 54.8594C423.883 55.9219 424.107 56.7161 424.555 57.2422C425.003 57.7682 425.531 58.0312 426.141 58.0312C426.755 58.0312 427.276 57.7812 427.703 57.2812C428.135 56.776 428.352 56.0078 428.352 54.9766C428.352 53.8411 428.133 53.0078 427.695 52.4766C427.258 51.9453 426.719 51.6797 426.078 51.6797C425.453 51.6797 424.93 51.9349 424.508 52.4453C424.091 52.9557 423.883 53.7604 423.883 54.8594ZM437.266 57.9766C436.745 58.4193 436.242 58.7318 435.758 58.9141C435.279 59.0964 434.763 59.1875 434.211 59.1875C433.299 59.1875 432.599 58.9661 432.109 58.5234C431.62 58.0755 431.375 57.5052 431.375 56.8125C431.375 56.4062 431.466 56.0365 431.648 55.7031C431.836 55.3646 432.078 55.0938 432.375 54.8906C432.677 54.6875 433.016 54.5339 433.391 54.4297C433.667 54.3568 434.083 54.2865 434.641 54.2188C435.776 54.0833 436.612 53.9219 437.148 53.7344C437.154 53.5417 437.156 53.4193 437.156 53.3672C437.156 52.7943 437.023 52.3906 436.758 52.1562C436.398 51.8385 435.865 51.6797 435.156 51.6797C434.495 51.6797 434.005 51.7969 433.688 52.0312C433.375 52.2604 433.143 52.6693 432.992 53.2578L431.617 53.0703C431.742 52.4818 431.948 52.0078 432.234 51.6484C432.521 51.2839 432.935 51.0052 433.477 50.8125C434.018 50.6146 434.646 50.5156 435.359 50.5156C436.068 50.5156 436.643 50.599 437.086 50.7656C437.529 50.9323 437.854 51.1432 438.062 51.3984C438.271 51.6484 438.417 51.9661 438.5 52.3516C438.547 52.5911 438.57 53.0234 438.57 53.6484V55.5234C438.57 56.8307 438.599 57.6589 438.656 58.0078C438.719 58.3516 438.839 58.6823 439.016 59H437.547C437.401 58.7083 437.307 58.3672 437.266 57.9766ZM437.148 54.8359C436.638 55.0443 435.872 55.2214 434.852 55.3672C434.273 55.4505 433.865 55.5443 433.625 55.6484C433.385 55.7526 433.201 55.9062 433.07 56.1094C432.94 56.3073 432.875 56.5286 432.875 56.7734C432.875 57.1484 433.016 57.4609 433.297 57.7109C433.583 57.9609 434 58.0859 434.547 58.0859C435.089 58.0859 435.57 57.9688 435.992 57.7344C436.414 57.4948 436.724 57.1693 436.922 56.7578C437.073 56.4401 437.148 55.9714 437.148 55.3516V54.8359ZM440.742 59V50.7031H442.008V51.9609C442.331 51.3724 442.628 50.9844 442.898 50.7969C443.174 50.6094 443.477 50.5156 443.805 50.5156C444.279 50.5156 444.76 50.6667 445.25 50.9688L444.766 52.2734C444.422 52.0703 444.078 51.9688 443.734 51.9688C443.427 51.9688 443.151 52.0625 442.906 52.25C442.661 52.4323 442.487 52.6875 442.383 53.0156C442.227 53.5156 442.148 54.0625 442.148 54.6562V59H440.742ZM446.023 62.1953L445.867 60.875C446.174 60.9583 446.443 61 446.672 61C446.984 61 447.234 60.9479 447.422 60.8438C447.609 60.7396 447.763 60.5938 447.883 60.4062C447.971 60.2656 448.115 59.9167 448.312 59.3594C448.339 59.2812 448.38 59.1667 448.438 59.0156L445.289 50.7031H446.805L448.531 55.5078C448.755 56.1172 448.956 56.7578 449.133 57.4297C449.294 56.7839 449.487 56.1536 449.711 55.5391L451.484 50.7031H452.891L449.734 59.1406C449.396 60.0521 449.133 60.6797 448.945 61.0234C448.695 61.487 448.409 61.8255 448.086 62.0391C447.763 62.2578 447.378 62.3672 446.93 62.3672C446.659 62.3672 446.357 62.3099 446.023 62.1953Z" fill="#0F67F5"/>
<rect x="353.5" y="33" width="123" height="40" rx="3" stroke="#0F67F5" stroke-width="2"/>
</svg>

<svg width="672" height="106" fill="none" xmlns="http://www.w3.org/2000/svg"><path fill="#F6F6F6" d="M0 0h672v106H0z"/><rect x="194.5" y="32" width="104" height="42" rx="4" fill="#0F67F5"/><path d="M219.73 59V47.55h4.33c.75 0 1.34.03 1.74.1.56.1 1.03.28 1.41.55.38.26.69.62.91 1.1.24.47.36 1 .36 1.56 0 .97-.31 1.8-.93 2.48-.62.67-1.74 1-3.36 1h-2.94V59h-1.52Zm1.52-6h2.96c.98 0 1.67-.19 2.09-.55a2 2 0 0 0 .61-1.54c0-.48-.12-.9-.36-1.23a1.68 1.68 0 0 0-.96-.68c-.25-.07-.72-.1-1.41-.1h-2.93V53Zm8.96 6v-8.3h1.27v1.26c.32-.59.62-.98.89-1.16.27-.2.57-.28.9-.28.48 0 .96.15 1.45.45l-.49 1.3a2 2 0 0 0-1.03-.3c-.3 0-.58.1-.82.28-.25.18-.42.44-.53.77-.16.5-.23 1.04-.23 1.64V59h-1.4Zm5.35-9.84v-1.61h1.4v1.61h-1.4Zm0 9.84v-8.3h1.4V59h-1.4Zm3.56 0v-8.3h1.25v1.17a2.92 2.92 0 0 1 2.52-1.35c.62 0 1.12.12 1.5.38a2 2 0 0 1 .84 1.07 2.98 2.98 0 0 1 2.57-1.45c.82 0 1.45.22 1.9.68.44.46.66 1.16.66 2.1V59h-1.4v-5.23c0-.56-.05-.96-.14-1.2a1.15 1.15 0 0 0-.5-.6 1.96 1.96 0 0 0-2.3.36c-.37.38-.57 1-.57 1.85V59h-1.4v-5.4c0-.62-.12-1.08-.35-1.4-.23-.3-.6-.47-1.12-.47-.4 0-.77.1-1.1.32-.34.2-.58.51-.73.91-.15.4-.23.98-.23 1.74V59h-1.4Zm18.74-1.02a4.32 4.32 0 0 1-3.05 1.21c-.92 0-1.62-.22-2.1-.67a2.22 2.22 0 0 1-.74-1.7 2.28 2.28 0 0 1 1-1.93c.3-.2.64-.36 1.01-.46.28-.07.7-.14 1.25-.21 1.14-.14 1.98-.3 2.51-.49l.01-.36c0-.58-.13-.98-.4-1.21-.36-.32-.9-.48-1.6-.48-.66 0-1.15.12-1.47.35-.31.23-.54.64-.7 1.23l-1.37-.19c.13-.59.33-1.06.62-1.42.28-.37.7-.64 1.24-.84.54-.2 1.17-.3 1.88-.3s1.29.09 1.73.26c.44.16.77.37.98.63.2.25.35.57.43.95.05.24.07.67.07 1.3v1.87c0 1.31.03 2.14.09 2.49.06.34.18.67.36.99h-1.47c-.14-.3-.24-.63-.28-1.02Zm-.12-3.14c-.5.2-1.27.38-2.3.53a5.3 5.3 0 0 0-1.22.28 1.21 1.21 0 0 0-.75 1.12c0 .38.14.7.42.94.29.25.7.38 1.25.38.54 0 1.02-.12 1.45-.36.42-.24.73-.56.93-.97.15-.32.22-.79.22-1.4v-.52Zm3.6 4.16v-8.3h1.26v1.26c.32-.59.62-.98.9-1.16.27-.2.57-.28.9-.28.47 0 .95.15 1.44.45l-.48 1.3a2 2 0 0 0-1.03-.3 1.4 1.4 0 0 0-1.35 1.05c-.16.5-.24 1.04-.24 1.64V59h-1.4Zm5.28 3.2-.16-1.33c.3.09.58.13.8.13.32 0 .57-.05.76-.16.18-.1.34-.25.46-.43a6.99 6.99 0 0 0 .55-1.4l-3.15-8.3h1.52l1.73 4.8c.22.6.42 1.25.6 1.92.16-.65.35-1.28.57-1.9l1.78-4.83h1.4l-3.15 8.44c-.34.91-.6 1.54-.8 1.88-.24.47-.53.8-.85 1.02-.32.22-.7.33-1.16.33-.27 0-.57-.06-.9-.17Z" fill="#fff"/><rect x="353.5" y="33" width="123" height="40" rx="3" fill="#fff"/><path d="m377.22 55.32 1.43-.12c.07.57.22 1.04.47 1.4.25.37.63.67 1.15.9.52.22 1.11.34 1.76.34a4.2 4.2 0 0 0 1.53-.26c.44-.17.77-.4.99-.7a1.65 1.65 0 0 0 .02-1.93 2.3 2.3 0 0 0-1.04-.68c-.3-.12-.99-.3-2.04-.55-1.05-.26-1.79-.5-2.2-.72a3.14 3.14 0 0 1-1.24-1.06 2.7 2.7 0 0 1-.4-1.43 3.05 3.05 0 0 1 1.93-2.77 5.53 5.53 0 0 1 2.1-.39c.86 0 1.6.14 2.25.42a3.22 3.22 0 0 1 2.06 3l-1.45.11a2.34 2.34 0 0 0-.8-1.64c-.45-.37-1.11-.55-1.99-.55-.92 0-1.59.17-2 .5a1.5 1.5 0 0 0-.63 1.22c0 .4.15.75.44 1.01.3.27 1.06.54 2.28.82a15 15 0 0 1 2.54.73c.67.3 1.16.7 1.48 1.17.32.47.48 1.01.48 1.63 0 .6-.18 1.18-.53 1.72-.35.54-.85.96-1.5 1.26a6.62 6.62 0 0 1-4.81 0 3.68 3.68 0 0 1-2.28-3.43Zm16.69 1 1.45.19c-.23.85-.65 1.5-1.27 1.97s-1.42.7-2.38.7a3.82 3.82 0 0 1-2.89-1.11 4.4 4.4 0 0 1-1.06-3.15c0-1.4.36-2.48 1.08-3.25a3.65 3.65 0 0 1 2.8-1.15c1.1 0 2 .37 2.71 1.13a4.5 4.5 0 0 1 1.06 3.19l-.01.37h-6.19c.05.91.31 1.61.77 2.1a2.3 2.3 0 0 0 1.74.72c.51 0 .95-.13 1.32-.4.36-.28.65-.7.87-1.3Zm-4.62-2.27h4.63a2.82 2.82 0 0 0-.53-1.57 2.16 2.16 0 0 0-1.74-.8c-.65 0-1.2.2-1.63.64a2.57 2.57 0 0 0-.73 1.73Zm13.26 1.91 1.38.18a3.6 3.6 0 0 1-1.16 2.24c-.62.54-1.39.8-2.3.8a3.58 3.58 0 0 1-2.74-1.1 4.6 4.6 0 0 1-1.03-3.2c0-.9.15-1.68.45-2.35a3.1 3.1 0 0 1 1.35-1.5c.6-.35 1.27-.51 1.98-.51.9 0 1.64.22 2.21.68.58.46.94 1.1 1.1 1.94l-1.36.21a2.26 2.26 0 0 0-.7-1.26 1.77 1.77 0 0 0-1.2-.42c-.7 0-1.27.26-1.72.77-.44.5-.66 1.3-.66 2.4 0 1.12.21 1.93.64 2.43.43.5.98.76 1.67.76a2 2 0 0 0 1.38-.5c.37-.35.6-.87.7-1.57Zm2.06-1.1c0-1.54.43-2.68 1.28-3.42a3.86 3.86 0 0 1 2.61-.92c1.14 0 2.07.37 2.8 1.12a4.25 4.25 0 0 1 1.08 3.1c0 1.06-.16 1.9-.48 2.52-.32.6-.78 1.08-1.4 1.42-.6.34-1.28.5-2 .5-1.16 0-2.1-.36-2.82-1.11-.71-.74-1.07-1.82-1.07-3.22Zm1.44 0c0 1.05.24 1.85.7 2.38.46.53 1.05.8 1.75.8s1.28-.27 1.74-.8c.47-.54.7-1.35.7-2.44 0-1.02-.24-1.8-.7-2.32a2.2 2.2 0 0 0-1.74-.8c-.7 0-1.29.26-1.75.79-.46.52-.7 1.32-.7 2.38Zm7.99 4.14v-8.3h1.26v1.18a2.98 2.98 0 0 1 2.64-1.36c.5 0 .96.09 1.38.27.42.18.74.41.95.7.2.3.35.64.43 1.04.06.26.08.72.08 1.37V59h-1.4v-5.05c0-.57-.06-1-.17-1.28-.1-.28-.3-.51-.58-.68-.28-.17-.6-.26-.98-.26-.6 0-1.12.2-1.56.57-.43.38-.64 1.1-.64 2.17V59h-1.41Zm14.29 0v-1.05A2.58 2.58 0 0 1 426 59.2c-.66 0-1.27-.18-1.83-.55a3.64 3.64 0 0 1-1.29-1.52 5.4 5.4 0 0 1-.45-2.26c0-.83.14-1.58.41-2.25a3.26 3.26 0 0 1 3.1-2.1 2.74 2.74 0 0 1 2.28 1.15v-4.11h1.4V59h-1.3Zm-4.45-4.14c0 1.06.23 1.86.68 2.38a1.97 1.97 0 0 0 3.14.04c.44-.5.65-1.27.65-2.3 0-1.14-.22-1.97-.66-2.5a2.02 2.02 0 0 0-3.18-.03c-.42.5-.63 1.31-.63 2.4Zm13.39 3.12c-.52.44-1.03.75-1.51.93-.48.19-1 .28-1.55.28-.91 0-1.61-.22-2.1-.67a2.22 2.22 0 0 1-.74-1.7 2.28 2.28 0 0 1 1-1.93c.3-.2.65-.36 1.02-.46.28-.07.7-.14 1.25-.21 1.14-.14 1.97-.3 2.5-.49l.02-.36c0-.58-.14-.98-.4-1.21-.36-.32-.9-.48-1.6-.48-.67 0-1.16.12-1.47.35-.31.23-.55.64-.7 1.23l-1.37-.19c.12-.59.33-1.06.61-1.42.3-.37.7-.64 1.25-.84.54-.2 1.17-.3 1.88-.3.7 0 1.28.09 1.73.26.44.16.76.37.97.63.21.25.36.57.44.95.05.24.07.67.07 1.3v1.87c0 1.31.03 2.14.09 2.49.06.34.18.67.36.99h-1.47a2.9 2.9 0 0 1-.28-1.02Zm-.12-3.14c-.51.2-1.28.38-2.3.53a4.9 4.9 0 0 0-1.23.28 1.22 1.22 0 0 0-.75 1.12c0 .38.15.7.43.94.28.25.7.38 1.25.38.54 0 1.02-.12 1.44-.36.42-.24.73-.56.93-.97.15-.32.23-.79.23-1.4v-.52Zm3.6 4.16v-8.3H442v1.26c.32-.59.62-.98.89-1.16.27-.2.58-.28.9-.28.48 0 .96.15 1.45.45l-.48 1.3c-.35-.2-.7-.3-1.04-.3-.3 0-.58.1-.82.28-.25.18-.42.44-.53.77-.15.5-.23 1.04-.23 1.64V59h-1.4Zm5.27 3.2-.15-1.33c.3.09.57.13.8.13.31 0 .56-.05.75-.16.19-.1.34-.25.46-.43.1-.14.24-.5.43-1.05l.13-.34-3.15-8.32h1.51l1.73 4.8c.23.62.43 1.26.6 1.93.16-.65.36-1.28.58-1.9l1.77-4.83h1.41l-3.16 8.44c-.33.91-.6 1.54-.79 1.88-.25.47-.53.8-.85 1.02-.33.22-.71.33-1.16.33-.27 0-.57-.06-.9-.17Z" fill="#0F67F5"/><rect x="353.5" y="33" width="123" height="40" rx="3" stroke="#0F67F5" stroke-width="2"/></svg>
